packages/components/bolt-icons/src/svgs/product/product/customer-onboarding.svg

<?xml version="1.0" encoding="UTF-8" standalone="no"?>
<svg width="32px" height="32px" viewBox="0 0 32 32" version="1.1" xmlns="http://www.w3.org/2000/svg" xmlns:xlink="http://www.w3.org/1999/xlink">
    <!-- Generator: Sketch 47.1 (45422) - http://www.bohemiancoding.com/sketch -->
    <title>Icon/product/customer-onboarding</title>
    <desc>Created with Sketch.</desc>
    <defs></defs>
    <g id="Symbols" stroke="none" stroke-width="1" fill="none" fill-rule="evenodd">
        <g id="Icon/product/customer-onboarding" fill="#1F2555">
            <path d="M6,10 C6,6.135 9.135,3 13,3 C16.866,3 20,6.135 20,10 C20,13.866 16.866,17 13,17 C9.135,17 6,13.866 6,10 M17.403,17.846 C20.146,16.303 22,13.37 22,10 C22,5.029 17.971,1 13,1 C8.03,1 4,5.029 4,10 C4,13.37 5.855,16.303 8.598,17.846 C4.15,19.602 1,23.93 1,29 L1,31 L3,31 L3,29 C3,23.477 7.478,19 13,19 C15.68,19 18.107,20.061 19.903,21.777 L20,20.999 L21.915,20.999 C20.682,19.629 19.147,18.534 17.403,17.846 M30,24.999 L27,24.999 L27,22 C27,21.447 26.553,20.999 26,20.999 C25.448,20.999 25,21.447 25,22 L25,24.999 L22,24.999 C21.448,24.999 21,25.447 21,26 C21,26.553 21.448,27 22,27 L25,27 L25,30 C25,30.552 25.448,31 26,31 C26.553,31 27,30.552 27,30 L27,27 L30,27 C30.553,27 31,26.553 31,26 C31,25.447 30.553,24.999 30,24.999" id="Page-1"></path>
        </g>
    </g>
</svg>

<svg id="b5c30812-3fe4-42aa-bbef-f336a38bc862" data-name="Layer 1" xmlns="http://www.w3.org/2000/svg" viewBox="0 0 30 30"><title>customer-onboarding</title><path id="a4d581b5-1302-4e19-ba5e-7e19f8c0afb4" data-name="Page-1" d="M6,10a7,7,0,1,1,7,7,7,7,0,0,1-7-7m11.4,7.8A9,9,0,1,0,4,10a8.92,8.92,0,0,0,4.6,7.8A12.14,12.14,0,0,0,1,29v2H3V29a10,10,0,0,1,16.9-7.2L20,21h1.9a12,12,0,0,0-4.5-3.2M30,25H27V22a1,1,0,0,0-2,0v3H22a1,1,0,0,0,0,2h3v3a1,1,0,0,0,2,0V27h3a1,1,0,0,0,0-2" transform="translate(-1 -1)" fill="#1f2555" fill-rule="evenodd"/></svg>
